; generated by PrusaSlicer 2.7.1+MacOS-arm64 on 2025-07-23 at 15:03:00 UTC


;
;
; 

; external perimeters extrusion width = 0.45mm
; perimeters extrusion width = 0.45mm
; infill extrusion width = 0.45mm
; solid infill extrusion width = 0.45mm
; top infill extrusion width = 0.40mm
; support material extrusion width = 0.35mm
; first layer extrusion width = 0.42mm

M73 P0 R93
M73 Q0 S94
M201 X1000 Y1000 Z200 E5000 ; sets maximum accelerations, mm/sec^2
M203 X200 Y200 Z12 E120 ; sets maximum feedrates, mm / sec
M204 S1250 T1250 ; sets acceleration (S) and retract acceleration (R), mm/sec^2
M205 X8.00 Y8.00 Z0.40 E4.50 ; sets the jerk limits, mm/sec
M205 S0 T0 ; sets the minimum extruding and travel feed rate, mm/sec

; printing object lid.stl id:0 copy 0
; stop printing object lid.stl id:0 copy 0

;TYPE:Custom
M862.3 P "MK3" ; printer model check
M862.1 P0.4 ; nozzle diameter check
M115 U3.13.3 ; tell printer latest fw version
G90 ; use absolute coordinates
M83 ; extruder relative mode
M104 S215 ; set extruder temp
M140 S60 ; set bed temp
M190 S60 ; wait for bed temp
M109 S215 ; wait for extruder temp
G28 W ; home all without mesh bed level
G80 X101.175 Y86.2244 W71.0024 H41.0102 ; mesh bed levelling

G1 Z0.2 F720
G1 Y-3 F1000 ; go outside print area
G92 E0
G1 X60 E9 F1000 ; intro line
G1 X100 E12.5 F1000 ; intro line
M73 Q0 S93

G92 E0
M221 S95

; Don't change E values below. Excessive value can damage the printer.
M907 E430 ; set extruder motor current
G21 ; set units to millimeters
G90 ; use absolute coordinates
M83 ; use relative distances for extrusion

M900 K0.05 ; Filament gcode LA 1.5
M900 K30 ; Filament gcode LA 1.0




M107
;LAYER_CHANGE
;Z:0.2
;HEIGHT:0.2
;BEFORE_LAYER_CHANGE
G92 E0.0
;0.2


G1 E-.8 F2100
G1 Z.2 F720
;AFTER_LAYER_CHANGE
;0.2
G1 X106.942 Y86.878 F10800
G1 Z.2 F720
G1 E.8 F2100
M204 S800
;TYPE:Skirt/Brim
;WIDTH:0.42
G1 F1200
G1 X108.355 Y86.413 E.04664
G1 X164.997 Y86.413 E1.77597
G1 X166.304 Y86.804 E.04277
G1 X167.228 Y87.97 E.04665
G1 X169.907 Y95.256 E.2434
G1 X170.038 Y95.808 E.01779
G1 X171.988 Y113.105 E.54577
G1 X171.989 Y120.054 E.21788
G1 X171.293 Y121.736 E.05707
G1 X166.678 Y126.35 E.20461
G1 X164.997 Y127.046 E.05705
G1 X108.355 Y127.046 E1.77597
G1 X106.674 Y126.35 E.05705
G1 X102.06 Y121.736 E.20459
G1 X101.364 Y120.055 E.05705
G1 X101.364 Y113.108 E.21782
G1 X103.314 Y95.808 E.54586
G1 X103.445 Y95.256 E.01779
G1 X106.124 Y87.97 E.2434
G1 X106.906 Y86.926 E.0409
M204 S1000
; printing object lid.stl id:0 copy 0
;WIPE_START
G1 F8640
G1 X106.942 Y86.878 E-.01385
G1 X108.355 Y86.413 E-.34348
G1 X110.272 Y86.413 E-.44267
;WIPE_END
G1 Z.6 F720
G1 X156.113 Y95.815 F10800
G1 Z.2 F720
G1 E.8 F2100
M204 S800
;TYPE:Support material
G1 F1200
G1 X157.4 Y95.894 E.04043
G1 X159.078 Y96.251 E.05379
G1 X160.669 Y96.886 E.05371
G1 X161.786 Y97.537 E.04054
G1 X163.12 Y98.608 E.05364
G1 X164.254 Y99.887 E.05359
G1 X164.958 Y100.969 E.04047
G1 X165.668 Y102.523 E.05357
M73 P0 R92
G1 X166.094 Y104.095 E.05107
G1 X166.259 Y105.422 E.04193
G1 X166.248 Y106.759 E.04192
G1 X166.062 Y108.085 E.04198
G1 X165.588 Y109.686 E.05235
G1 X164.858 Y111.191 E.05245
G1 X163.893 Y112.552 E.05231
G1 X162.859 Y113.619 E.04659
G1 X162.791 Y113.891 E.00879
G1 X163.221 Y115.175 E.04246
G1 X163.473 Y115.356 E.00973
G1 X167.875 Y115.356 E.13802
G1 X168.156 Y115.075 E.01246
G1 X168.156 Y113.106 E.06174
G1 X169.611 Y113.106 E.04562
G1 X169.612 Y120.055 E.21788
G1 X167.305 Y120.055 E.07233
G1 X167.305 Y122.362 E.07233
G1 X164.997 Y122.362 E.07237
G1 X164.997 Y124.669 E.07233
G1 X108.355 Y124.669 E1.77597
G1 X108.355 Y122.362 E.07233
G1 X106.048 Y122.362 E.07233
G1 X106.048 Y120.055 E.07233
G1 X103.741 Y120.055 E.07233
G1 X103.741 Y113.108 E.21782
G1 X105.196 Y113.106 E.04562
G1 X105.196 Y115.075 E.06174
G1 X105.477 Y115.356 E.01246
G1 X109.88 Y115.356 E.13805
G1 X110.131 Y115.175 E.0097
G1 X110.561 Y113.891 E.04246
G1 X110.493 Y113.619 E.00879
G1 X109.46 Y112.553 E.04654
G1 X108.669 Y111.475 E.04192
G1 X108.025 Y110.3 E.04201
G1 X107.448 Y108.734 E.05233
G1 X107.104 Y106.758 E.06289
G1 X107.093 Y105.427 E.04173
G1 X107.201 Y104.425 E.0316
G1 X107.429 Y103.344 E.03464
G1 X107.838 Y102.121 E.04043
G1 X108.397 Y100.964 E.04029
G1 X109.101 Y99.883 E.04045
G1 X109.932 Y98.906 E.04022
G1 X110.885 Y98.037 E.04044
G1 X111.933 Y97.301 E.04015
G1 X113.072 Y96.701 E.04036
G1 X114.691 Y96.134 E.05379
G1 X115.953 Y95.894 E.04028
G1 X116.807 Y95.823 E.02687
G1 X156.056 Y95.815 E1.23062
M204 S1000
;WIPE_START
G1 F8640
G1 X152.591 Y95.816 E-.8
;WIPE_END
G1 Z.6 F720
G1 X168.937 Y119.885 F10800
G1 Z.2 F720
G1 E.8 F2100
M204 S800
G1 F1200
G1 X168.937 Y113.445 E.20192
G1 X168.518 Y113.445 E.01314
G1 X168.518 Y119.715 E.19659
G1 X168.099 Y119.715 E.01314
G1 X168.099 Y115.611 E.12868
G1 X168.015 Y115.695 E.00372
G1 X167.68 Y115.695 E.0105
G1 X167.68 Y119.715 E.12604
G1 X167.261 Y119.715 E.01314
G1 X167.261 Y115.695 E.12604
G1 X166.842 Y115.695 E.01314
G1 X166.842 Y122.022 E.19838
G1 X166.423 Y122.022 E.01314
G1 X166.423 Y115.695 E.19838
G1 X166.004 Y115.695 E.01314
G1 X166.004 Y122.022 E.19838
G1 X165.586 Y122.022 E.01311
G1 X165.586 Y115.695 E.19838
G1 X165.167 Y115.695 E.01314
G1 X165.167 Y122.022 E.19838
G1 X164.748 Y122.022 E.01314
G1 X164.748 Y115.695 E.19838
G1 X164.329 Y115.695 E.01314
G1 X164.329 Y124.33 E.27074
G1 X163.91 Y124.33 E.01314
G1 X163.91 Y115.695 E.27074
G1 X163.491 Y115.695 E.01314
G1 X163.491 Y124.33 E.27074
G1 X163.072 Y124.33 E.01314
G1 X163.072 Y115.485 E.27733
G1 X162.934 Y115.387 E.00531
G1 X162.653 Y114.546 E.0278
G1 X162.653 Y124.33 E.30677
G1 X162.234 Y124.33 E.01314
G1 X162.234 Y98.286 E.81659
G1 X161.815 Y97.972 E.01642
G1 X161.815 Y124.33 E.82644
G1 X161.396 Y124.33 E.01314
G1 X161.396 Y97.689 E.83531
G1 X160.977 Y97.436 E.01535
G1 X160.977 Y124.33 E.84324
G1 X160.558 Y124.33 E.01314
G1 X160.558 Y97.21 E.85033
G1 X160.139 Y97.01 E.01456
G1 X160.139 Y124.33 E.8566
G1 X159.72 Y124.33 E.01314
G1 X159.72 Y96.834 E.86212
G1 X159.301 Y96.681 E.01399
G1 X159.301 Y124.33 E.86691
G1 X158.882 Y124.33 E.01314
G1 X158.882 Y96.549 E.87105
G1 X158.463 Y96.437 E.0136
G1 X158.463 Y124.33 E.87457
G1 X158.044 Y124.33 E.01314
G1 X158.044 Y96.344 E.87748
G1 X157.625 Y96.27 E.01334
G1 X157.625 Y124.33 E.8798
G1 X157.206 Y124.33 E.01314
G1 X157.206 Y96.215 E.88153
G1 X156.787 Y96.178 E.01319
G1 X156.787 Y124.33 E.88269
G1 X156.368 Y124.33 E.01314
G1 X156.368 Y96.159 E.88328
G1 X155.949 Y96.154 E.01314
G1 X155.949 Y124.33 E.88344
G1 X155.53 Y124.33 E.01314
M73 P1 R92
M73 Q1 S93
G1 X155.53 Y96.155 E.88341
G1 X155.111 Y96.156 E.01314
G1 X155.111 Y124.33 E.88338
G1 X154.692 Y124.33 E.01314
G1 X154.692 Y96.157 E.88334
G1 X154.273 Y96.158 E.01314
M73 Q1 S92
G1 X154.273 Y124.33 E.88331
G1 X153.854 Y124.33 E.01314
G1 X153.854 Y96.158 E.88331
G1 X153.435 Y96.159 E.01314
G1 X153.435 Y124.33 E.88328
G1 X153.016 Y124.33 E.01314
G1 X153.016 Y96.16 E.88325
G1 X152.597 Y96.161 E.01314
G1 X152.597 Y124.33 E.88322
G1 X152.178 Y124.33 E.01314
G1 X152.178 Y96.162 E.88319
G1 X151.759 Y96.163 E.01314
G1 X151.759 Y124.33 E.88316
G1 X151.34 Y124.33 E.01314
G1 X151.34 Y96.163 E.88316
G1 X150.921 Y96.164 E.01314
G1 X150.921 Y124.33 E.88313
G1 X150.502 Y124.33 E.01314
G1 X150.502 Y96.165 E.88309
G1 X150.083 Y96.166 E.01314
G1 X150.083 Y124.33 E.88306
G1 X149.664 Y124.33 E.01314
G1 X149.664 Y96.167 E.88303
G1 X149.245 Y96.167 E.01314
M73 P1 R91
G1 X149.245 Y124.33 E.88303
G1 X148.826 Y124.33 E.01314
G1 X148.826 Y96.168 E.883
G1 X148.407 Y96.169 E.01314
G1 X148.407 Y124.33 E.88297
G1 X147.988 Y124.33 E.01314
G1 X147.988 Y96.17 E.88294
G1 X147.569 Y96.171 E.01314
G1 X147.569 Y124.33 E.88291
G1 X147.151 Y124.33 E.01311
G1 X147.151 Y96.172 E.88287
G1 X146.732 Y96.172 E.01314
G1 X146.732 Y124.33 E.88287
G1 X146.313 Y124.33 E.01314
G1 X146.313 Y96.173 E.88284
G1 X145.894 Y96.174 E.01314
G1 X145.894 Y124.33 E.88281
G1 X145.475 Y124.33 E.01314
G1 X145.475 Y96.175 E.88278
G1 X145.056 Y96.176 E.01314
G1 X145.056 Y124.33 E.88275
G1 X144.637 Y124.33 E.01314
G1 X144.637 Y96.176 E.88275
G1 X144.218 Y96.177 E.01314
G1 X144.218 Y124.33 E.88272
G1 X143.799 Y124.33 E.01314
G1 X143.799 Y96.178 E.88269
G1 X143.38 Y96.179 E.01314
G1 X143.38 Y124.33 E.88265
G1 X142.961 Y124.33 E.01314
G1 X142.961 Y96.18 E.88262
G1 X142.542 Y96.181 E.01314
G1 X142.542 Y124.33 E.88259
G1 X142.123 Y124.33 E.01314
G1 X142.123 Y96.181 E.88259
G1 X141.704 Y96.182 E.01314
G1 X141.704 Y124.33 E.88256
G1 X141.285 Y124.33 E.01314
G1 X141.285 Y96.183 E.88253
G1 X140.866 Y96.184 E.01314
G1 X140.866 Y124.33 E.8825
G1 X140.447 Y124.33 E.01314
G1 X140.447 Y96.185 E.88247
G1 X140.028 Y96.185 E.01314
G1 X140.028 Y124.33 E.88247
G1 X139.609 Y124.33 E.01314
M73 P2 R91
G1 X139.609 Y96.186 E.88244
G1 X139.19 Y96.187 E.01314
M73 Q2 S92
G1 X139.19 Y124.33 E.8824
G1 X138.771 Y124.33 E.01314
G1 X138.771 Y96.188 E.88237
G1 X138.352 Y96.189 E.01314
G1 X138.352 Y124.33 E.88234
G1 X137.933 Y124.33 E.01314
G1 X137.933 Y96.19 E.88231
G1 X137.514 Y96.19 E.01314
G1 X137.514 Y124.33 E.88231
G1 X137.095 Y124.33 E.01314
G1 X137.095 Y96.191 E.88228
G1 X136.676 Y96.192 E.01314
M73 Q2 S91
G1 X136.676 Y124.33 E.88225
G1 X136.257 Y124.33 E.01314
G1 X136.257 Y96.191 E.88228
G1 X135.838 Y96.19 E.01314
G1 X135.838 Y124.33 E.88231
G1 X135.419 Y124.33 E.01314
G1 X135.419 Y96.19 E.88231
G1 X135 Y96.189 E.01314
G1 X135 Y124.33 E.88234
G1 X134.581 Y124.33 E.01314
G1 X134.581 Y96.188 E.88237
G1 X134.162 Y96.187 E.01314
G1 X134.162 Y124.33 E.8824
G1 X133.743 Y124.33 E.01314
G1 X133.743 Y96.186 E.88244
G1 X133.324 Y96.185 E.01314
G1 X133.324 Y124.33 E.88247
G1 X132.905 Y124.33 E.01314
G1 X132.905 Y96.185 E.88247
G1 X132.486 Y96.184 E.01314
G1 X132.486 Y124.33 E.8825
G1 X132.067 Y124.33 E.01314
G1 X132.067 Y96.183 E.88253
G1 X131.648 Y96.182 E.01314
M73 P2 R90
G1 X131.648 Y124.33 E.88256
G1 X131.229 Y124.33 E.01314
G1 X131.229 Y96.181 E.88259
G1 X130.81 Y96.181 E.01314
G1 X130.81 Y124.33 E.88259
G1 X130.391 Y124.33 E.01314
G1 X130.391 Y96.18 E.88262
G1 X129.972 Y96.179 E.01314
G1 X129.972 Y124.33 E.88265
G1 X129.553 Y124.33 E.01314
G1 X129.553 Y96.178 E.88269
G1 X129.135 Y96.177 E.01311
G1 X129.135 Y124.33 E.88272
G1 X128.716 Y124.33 E.01314
G1 X128.716 Y96.176 E.88275
G1 X128.297 Y96.176 E.01314
G1 X128.297 Y124.33 E.88275
G1 X127.878 Y124.33 E.01314
G1 X127.878 Y96.175 E.88278
G1 X127.459 Y96.174 E.01314
G1 X127.459 Y124.33 E.88281
G1 X127.04 Y124.33 E.01314
G1 X127.04 Y96.173 E.88284
G1 X126.621 Y96.172 E.01314
G1 X126.621 Y124.33 E.88287
G1 X126.202 Y124.33 E.01314
G1 X126.202 Y96.172 E.88287
G1 X125.783 Y96.171 E.01314
G1 X125.783 Y124.33 E.88291
G1 X125.364 Y124.33 E.01314
G1 X125.364 Y96.17 E.88294
G1 X124.945 Y96.169 E.01314
G1 X124.945 Y124.33 E.88297
G1 X124.526 Y124.33 E.01314
G1 X124.526 Y96.168 E.883
G1 X124.107 Y96.167 E.01314
G1 X124.107 Y124.33 E.88303
G1 X123.688 Y124.33 E.01314
G1 X123.688 Y96.167 E.88303
G1 X123.269 Y96.166 E.01314
M73 P3 R90
G1 X123.269 Y124.33 E.88306
G1 X122.85 Y124.33 E.01314
M73 Q3 S91
G1 X122.85 Y96.165 E.88309
G1 X122.431 Y96.164 E.01314
G1 X122.431 Y124.33 E.88313
G1 X122.012 Y124.33 E.01314
G1 X122.012 Y96.163 E.88316
G1 X121.593 Y96.163 E.01314
G1 X121.593 Y124.33 E.88316
G1 X121.174 Y124.33 E.01314
G1 X121.174 Y96.162 E.88319
G1 X120.755 Y96.161 E.01314
G1 X120.755 Y124.33 E.88322
G1 X120.336 Y124.33 E.01314
G1 X120.336 Y96.16 E.88325
G1 X119.917 Y96.159 E.01314
G1 X119.917 Y124.33 E.88328
G1 X119.498 Y124.33 E.01314
M73 Q3 S90
G1 X119.498 Y96.158 E.88331
G1 X119.079 Y96.158 E.01314
G1 X119.079 Y124.33 E.88331
G1 X118.66 Y124.33 E.01314
G1 X118.66 Y96.157 E.88334
G1 X118.241 Y96.156 E.01314
G1 X118.241 Y124.33 E.88338
G1 X117.822 Y124.33 E.01314
G1 X117.822 Y96.155 E.88341
G1 X117.403 Y96.154 E.01314
G1 X117.403 Y124.33 E.88344
G1 X116.984 Y124.33 E.01314
G1 X116.984 Y96.159 E.88328
G1 X116.565 Y96.178 E.01315
G1 X116.565 Y124.33 E.88269
G1 X116.146 Y124.33 E.01314
G1 X116.146 Y96.215 E.88153
G1 X115.727 Y96.27 E.01325
G1 X115.727 Y124.33 E.8798
G1 X115.308 Y124.33 E.01314
G1 X115.308 Y96.344 E.87748
G1 X114.889 Y96.436 E.01345
G1 X114.889 Y124.33 E.8746
G1 X114.47 Y124.33 E.01314
M73 P3 R89
G1 X114.47 Y96.549 E.87105
G1 X114.051 Y96.681 E.01377
G1 X114.051 Y124.33 E.86691
G1 X113.632 Y124.33 E.01314
G1 X113.632 Y96.834 E.86212
G1 X113.213 Y97.01 E.01425
G1 X113.213 Y124.33 E.8566
G1 X112.794 Y124.33 E.01314
G1 X112.794 Y97.21 E.85033
G1 X112.375 Y97.436 E.01493
G1 X112.375 Y124.33 E.84324
G1 X111.956 Y124.33 E.01314
G1 X111.956 Y97.689 E.83531
G1 X111.537 Y97.972 E.01585
G1 X111.537 Y124.33 E.82644
G1 X111.118 Y124.33 E.01314
G1 X111.118 Y98.286 E.81659
G1 X110.7 Y98.641 E.01719
G1 X110.7 Y113.347 E.4611
G1 X110.281 Y112.945 E.01821
G1 X110.281 Y99.038 E.43604
G1 X109.862 Y99.484 E.01919
G1 X109.862 Y112.497 E.40801
G1 X109.443 Y111.987 E.0207
G1 X109.443 Y99.997 E.37594
G1 X109.024 Y100.59 E.02277
G1 X109.024 Y111.396 E.33881
G1 X108.605 Y110.695 E.02561
G1 X108.605 Y101.295 E.29473
G1 X108.186 Y102.172 E.03047
G1 X108.186 Y109.823 E.23989
G1 X107.767 Y108.612 E.04018
G1 X107.767 Y102.812 E.18185
M204 S1000
G1 X165.586 Y109.191 F10800
M204 S800
G1 F1200
G1 X165.586 Y103.398 E.18164
G1 X165.167 Y102.172 E.04062
G1 X165.167 Y109.823 E.23989
G1 X164.748 Y110.695 E.03033
G1 X164.748 Y101.295 E.29473
G1 X164.329 Y100.59 E.02571
G1 X164.329 Y111.396 E.33881
G1 X163.91 Y111.987 E.02271
G1 X163.91 Y99.997 E.37594
G1 X163.491 Y99.484 E.02077
G1 X163.491 Y112.497 E.40801
G1 X163.072 Y112.945 E.01923
G1 X163.072 Y99.038 E.43604
G1 X162.653 Y98.64 E.01812
G1 X162.653 Y113.745 E.47361
M204 S1000
G1 X110.7 Y124.499 F10800
M204 S800
G1 F1200
G1 X110.7 Y114.546 E.31207
G1 X110.418 Y115.387 E.02781
G1 X110.281 Y115.485 E.00528
G1 X110.281 Y124.33 E.27733
G1 X109.862 Y124.33 E.01314
G1 X109.862 Y115.695 E.27074
G1 X109.443 Y115.695 E.01314
G1 X109.443 Y124.33 E.27074
G1 X109.024 Y124.33 E.01314
M73 P4 R89
G1 X109.024 Y115.695 E.27074
G1 X108.605 Y115.695 E.01314
G1 X108.605 Y122.022 E.19838
G1 X108.186 Y122.022 E.01314
G1 X108.186 Y115.695 E.19838
G1 X107.767 Y115.695 E.01314
M73 Q4 S90
G1 X107.767 Y122.022 E.19838
G1 X107.348 Y122.022 E.01314
G1 X107.348 Y115.695 E.19838
G1 X106.929 Y115.695 E.01314
G1 X106.929 Y122.022 E.19838
G1 X106.51 Y122.022 E.01314
G1 X106.51 Y115.695 E.19838
G1 X106.091 Y115.695 E.01314
G1 X106.091 Y119.715 E.12604
G1 X105.672 Y119.715 E.01314
G1 X105.672 Y115.695 E.12604
G1 X105.337 Y115.695 E.0105
G1 X105.253 Y115.611 E.00372
G1 X105.253 Y119.715 E.12868
G1 X104.834 Y119.715 E.01314
G1 X104.834 Y113.446 E.19656
G1 X104.415 Y113.447 E.01314
G1 X104.415 Y119.885 E.20186
M204 S1000
;WIPE_START
G1 F8640
G1 X104.415 Y116.42 E-.8
;WIPE_END
G1 Z.6 F720
G1 X126.458 Y90.646 F10800
G1 Z.2 F720
G1 E.8 F2100
M204 S800
G1 F1200
G1 X124.115 Y90.646 E.07346
G1 X123.834 Y90.927 E.01246
G1 X123.834 Y91.727 E.02508
G1 X122.965 Y92.596 E.03853
G1 X113.593 Y92.596 E.29385
G1 X112.666 Y91.669 E.0411
G1 X112.49 Y91.596 E.00597
G1 X109.581 Y91.596 E.09121
G1 X109.404 Y91.669 E.006
G1 X108.355 Y92.718 E.04651
G1 X108.355 Y88.79 E.12316
G1 X126.458 Y88.79 E.56761
G1 X126.458 Y90.589 E.05641
M204 S1000
G1 X125.783 Y90.476 F10800
M204 S800
G1 F1200
G1 X125.783 Y89.129 E.04223
G1 X125.364 Y89.129 E.01314
G1 X125.364 Y90.307 E.03694
G1 X124.945 Y90.307 E.01314
G1 X124.945 Y89.129 E.03694
G1 X124.526 Y89.129 E.01314
G1 X124.526 Y90.307 E.03694
G1 X124.107 Y90.307 E.01314
G1 X124.107 Y89.129 E.03694
G1 X123.688 Y89.129 E.01314
G1 X123.688 Y90.593 E.0459
G1 X123.494 Y90.787 E.0086
G1 X123.494 Y91.587 E.02508
G1 X123.269 Y91.812 E.00998
G1 X123.269 Y89.129 E.08412
G1 X122.85 Y89.129 E.01314
G1 X122.85 Y92.231 E.09726
G1 X122.431 Y92.257 E.01316
G1 X122.431 Y89.129 E.09808
G1 X122.012 Y89.129 E.01314
G1 X122.012 Y92.257 E.09808
G1 X121.593 Y92.257 E.01314
G1 X121.593 Y89.129 E.09808
G1 X121.174 Y89.129 E.01314
G1 X121.174 Y92.257 E.09808
G1 X120.755 Y92.257 E.01314
G1 X120.755 Y89.129 E.09808
G1 X120.336 Y89.129 E.01314
G1 X120.336 Y92.257 E.09808
G1 X119.917 Y92.257 E.01314
G1 X119.917 Y89.129 E.09808
G1 X119.498 Y89.129 E.01314
G1 X119.498 Y92.257 E.09808
G1 X119.079 Y92.257 E.01314
