; generated by PrusaSlicer 2.7.1+MacOS-arm64 on 2025-05-11 at 11:13:27 UTC


;
;
; 

; external perimeters extrusion width = 0.45mm
; perimeters extrusion width = 0.45mm
; infill extrusion width = 0.45mm
; solid infill extrusion width = 0.45mm
; top infill extrusion width = 0.40mm
; support material extrusion width = 0.35mm
; first layer extrusion width = 0.42mm

; external perimeters extrusion width = 0.45mm
; perimeters extrusion width = 0.45mm
; infill extrusion width = 0.45mm
; solid infill extrusion width = 0.45mm
; top infill extrusion width = 0.40mm
; support material extrusion width = 0.35mm
; first layer extrusion width = 0.42mm

M73 P0 R129
M73 C105
M73 Q0 S130
M73 D106
M201 X1000 Y1000 Z200 E5000 ; sets maximum accelerations, mm/sec^2
M203 X200 Y200 Z12 E120 ; sets maximum feedrates, mm / sec
M204 S1250 T1250 ; sets acceleration (S) and retract acceleration (R), mm/sec^2
M205 X8.00 Y8.00 Z0.40 E4.50 ; sets the jerk limits, mm/sec
M205 S0 T0 ; sets the minimum extruding and travel feed rate, mm/sec

; printing object david_tisk11.stl id:0 copy 0
; stop printing object david_tisk11.stl id:0 copy 0
; printing object david_tisk33.stl id:1 copy 0
; stop printing object david_tisk33.stl id:1 copy 0

;TYPE:Custom
M862.3 P "MK3" ; printer model check
M862.1 P0.4 ; nozzle diameter check
M115 U3.13.3 ; tell printer latest fw version
G90 ; use absolute coordinates
M83 ; extruder relative mode
M104 S215 ; set extruder temp
M140 S60 ; set bed temp
M190 S60 ; wait for bed temp
M109 S215 ; wait for extruder temp
G28 W ; home all without mesh bed level
G80 X79.4055 Y64.7801 W91.9987 H105.057 ; mesh bed levelling

G1 Z0.2 F720
G1 Y-3 F1000 ; go outside print area
G92 E0
G1 X60 E9 F1000 ; intro line
G1 X100 E12.5 F1000 ; intro line

G92 E0
M221 S95

; Don't change E values below. Excessive value can damage the printer.
M907 E430 ; set extruder motor current
G21 ; set units to millimeters
G90 ; use absolute coordinates
M83 ; use relative distances for extrusion

M900 K0.05 ; Filament gcode LA 1.5
M900 K30 ; Filament gcode LA 1.0




M107
;LAYER_CHANGE
;Z:0.2
;HEIGHT:0.2
;BEFORE_LAYER_CHANGE
G92 E0.0
;0.2


G1 E-.8 F2100
G1 Z.2 F720
;AFTER_LAYER_CHANGE
;0.2
G1 X79.986 Y66.039 F10800
G1 Z.2 F720
G1 E.8 F2100
M204 S800
;TYPE:Skirt/Brim
;WIDTH:0.42
G1 F1200
G1 X81.031 Y65.162 E.04277
G1 X81.971 Y64.969 E.03009
G1 X166.299 Y64.969 E2.64405
G1 X167.606 Y65.36 E.04277
G1 X168.482 Y66.406 E.04278
G1 X168.673 Y67.24 E.02683
G1 X171.213 Y124.366 E1.79292
G1 X171.216 Y167.272 E1.34529
G1 X170.824 Y168.579 E.04278
G1 X169.778 Y169.455 E.04278
G1 X168.839 Y169.649 E.03006
G1 X84.511 Y169.649 E2.64405
G1 X83.204 Y169.257 E.04278
G1 X82.328 Y168.211 E.04278
G1 X82.136 Y167.377 E.02683
G1 X79.596 Y110.251 E1.79292
G1 X79.594 Y67.346 E1.34526
G1 X79.968 Y66.096 E.04091
M204 S1000
; printing object david_tisk11.stl id:0 copy 0
;WIPE_START
G1 F8640
G1 X79.986 Y66.039 E-.0138
G1 X81.031 Y65.162 E-.31501
G1 X81.971 Y64.969 E-.22158
G1 X83.052 Y64.969 E-.24961
;WIPE_END
G1 Z.6 F720
G1 X89.055 Y68.266 F10800
G1 Z.2 F720
G1 E.8 F2100
M204 S800
;TYPE:Support material
G1 F1200
G1 X88.228 Y68.3 E.02595
G1 X87.526 Y68.528 E.02314
G1 X87.161 Y68.751 E.01341
G1 X86.64 Y69.272 E.0231
G1 X86.291 Y69.939 E.0236
G1 X86.183 Y70.377 E.01414
G1 X86.155 Y71.455 E.03381
G1 X86.436 Y71.736 E.01246
G1 X161.834 Y71.736 E2.36405
G1 X162.115 Y71.455 E.01246
G1 X162.087 Y70.377 E.03381
G1 X161.836 Y69.603 E.02551
G1 X161.401 Y69.005 E.02319
G1 X160.777 Y68.545 E.02431
G1 X160.041 Y68.3 E.02432
G1 X159.214 Y68.266 E.02595
G1 X159.397 Y67.346 E.02941
G1 X166.299 Y67.346 E.21641
G1 X166.299 Y110.146 E1.34196
G1 X159.397 Y110.146 E.21641
M73 D105
G1 X159.214 Y109.226 E.02941
G1 X160.042 Y109.192 E.02598
G1 X160.777 Y108.947 E.02429
G1 X161.375 Y108.512 E.02319
G1 X161.836 Y107.888 E.02433
G1 X162.087 Y107.115 E.02548
G1 X162.115 Y106.036 E.03384
G1 X161.834 Y105.755 E.01246
G1 X86.436 Y105.755 E2.36405
G1 X86.155 Y106.036 E.01246
G1 X86.183 Y107.116 E.03387
G1 X86.434 Y107.888 E.02545
G1 X86.868 Y108.486 E.02317
G1 X87.492 Y108.947 E.02433
G1 X88.228 Y109.192 E.02432
G1 X89.055 Y109.226 E.02595
G1 X88.873 Y110.146 E.0294
G1 X81.971 Y110.146 E.21641
G1 X81.971 Y67.346 E1.34196
G1 X88.873 Y67.346 E.21641
M73 C104
G1 X89.044 Y68.21 E.02762
M204 S1000
;WIPE_START
G1 F8640
G1 X88.873 Y67.346 E-.20337
G1 X86.289 Y67.346 E-.59663
;WIPE_END
G1 Z.6 F720
G1 X165.614 Y109.976 F10800
G1 Z.2 F720
G1 E.8 F2100
M204 S800
G1 F1200
G1 X165.614 Y67.685 E1.326
G1 X165.195 Y67.685 E.01314
G1 X165.195 Y109.807 E1.32071
G1 X164.776 Y109.807 E.01314
M73 Q0 S129
G1 X164.776 Y67.685 E1.32071
G1 X164.357 Y67.685 E.01314
M73 P0 R128
G1 X164.357 Y109.807 E1.32071
G1 X163.938 Y109.807 E.01314
G1 X163.938 Y67.685 E1.32071
G1 X163.519 Y67.685 E.01314
G1 X163.519 Y109.807 E1.32071
G1 X163.1 Y109.807 E.01314
G1 X163.1 Y67.685 E1.32071
G1 X162.681 Y67.685 E.01314
G1 X162.681 Y109.807 E1.32071
G1 X162.262 Y109.807 E.01314
G1 X162.262 Y107.755 E.06434
G1 X161.843 Y108.493 E.02661
G1 X161.843 Y109.807 E.0412
G1 X161.424 Y109.807 E.01314
G1 X161.424 Y108.918 E.02787
G1 X161.005 Y109.206 E.01594
G1 X161.005 Y109.807 E.01884
G1 X160.586 Y109.807 E.01314
G1 X160.586 Y109.397 E.01286
G1 X160.167 Y109.511 E.01362
G1 X160.167 Y109.807 E.00928
G1 X159.748 Y109.807 E.01314
G1 X159.748 Y109.389 E.01311
M204 S1000
;WIPE_START
G1 F8640
G1 X159.748 Y109.807 E-.09652
G1 X160.167 Y109.807 E-.09675
G1 X160.167 Y109.511 E-.06835
G1 X160.586 Y109.397 E-.10027
G1 X160.586 Y109.807 E-.09467
G1 X161.005 Y109.807 E-.09675
G1 X161.005 Y109.206 E-.13877
G1 X161.39 Y108.941 E-.10792
;WIPE_END
G1 Z.6 F720
G1 X162.262 Y105.943 F10800
G1 Z.2 F720
G1 E.8 F2100
M204 S800
G1 F1200
G1 X162.262 Y71.788 E1.07091
G1 X161.974 Y72.076 E.01277
G1 X161.843 Y72.076 E.00411
G1 X161.843 Y105.416 E1.04535
G1 X161.424 Y105.416 E.01314
G1 X161.424 Y72.076 E1.04535
G1 X161.005 Y72.076 E.01314
G1 X161.005 Y105.416 E1.04535
G1 X160.586 Y105.416 E.01314
G1 X160.586 Y72.076 E1.04535
G1 X160.167 Y72.076 E.01314
G1 X160.167 Y105.416 E1.04535
G1 X159.748 Y105.416 E.01314
G1 X159.748 Y72.076 E1.04535
G1 X159.329 Y72.076 E.01314
G1 X159.329 Y105.416 E1.04535
G1 X158.91 Y105.416 E.01314
G1 X158.91 Y72.076 E1.04535
G1 X158.491 Y72.076 E.01314
G1 X158.491 Y105.416 E1.04535
G1 X158.072 Y105.416 E.01314
G1 X158.072 Y72.076 E1.04535
G1 X157.653 Y72.076 E.01314
M73 P1 R128
M73 Q1 S129
G1 X157.653 Y105.416 E1.04535
G1 X157.234 Y105.416 E.01314
G1 X157.234 Y72.076 E1.04535
G1 X156.815 Y72.076 E.01314
G1 X156.815 Y105.416 E1.04535
G1 X156.396 Y105.416 E.01314
G1 X156.396 Y72.076 E1.04535
G1 X155.977 Y72.076 E.01314
G1 X155.977 Y105.416 E1.04535
G1 X155.558 Y105.416 E.01314
G1 X155.558 Y72.076 E1.04535
G1 X155.139 Y72.076 E.01314
G1 X155.139 Y105.416 E1.04535
G1 X154.72 Y105.416 E.01314
G1 X154.72 Y72.076 E1.04535
G1 X154.301 Y72.076 E.01314
M73 D104
G1 X154.301 Y105.416 E1.04535
G1 X153.882 Y105.416 E.01314
G1 X153.882 Y72.076 E1.04535
G1 X153.463 Y72.076 E.01314
G1 X153.463 Y105.416 E1.04535
G1 X153.044 Y105.416 E.01314
G1 X153.044 Y72.076 E1.04535
G1 X152.625 Y72.076 E.01314
M73 C103
G1 X152.625 Y105.416 E1.04535
G1 X152.206 Y105.416 E.01314
G1 X152.206 Y72.076 E1.04535
G1 X151.787 Y72.076 E.01314
G1 X151.787 Y105.416 E1.04535
G1 X151.368 Y105.416 E.01314
G1 X151.368 Y72.076 E1.04535
M73 Q1 S128
G1 X150.949 Y72.076 E.01314
G1 X150.949 Y105.416 E1.04535
G1 X150.53 Y105.416 E.01314
G1 X150.53 Y72.076 E1.04535
G1 X150.112 Y72.076 E.01311
M73 P1 R127
G1 X150.112 Y105.416 E1.04535
G1 X149.693 Y105.416 E.01314
G1 X149.693 Y72.076 E1.04535
G1 X149.274 Y72.076 E.01314
G1 X149.274 Y105.416 E1.04535
G1 X148.855 Y105.416 E.01314
G1 X148.855 Y72.076 E1.04535
G1 X148.436 Y72.076 E.01314
G1 X148.436 Y105.416 E1.04535
G1 X148.017 Y105.416 E.01314
G1 X148.017 Y72.076 E1.04535
G1 X147.598 Y72.076 E.01314
G1 X147.598 Y105.416 E1.04535
G1 X147.179 Y105.416 E.01314
G1 X147.179 Y72.076 E1.04535
G1 X146.76 Y72.076 E.01314
G1 X146.76 Y105.416 E1.04535
G1 X146.341 Y105.416 E.01314
G1 X146.341 Y72.076 E1.04535
G1 X145.922 Y72.076 E.01314
G1 X145.922 Y105.416 E1.04535
G1 X145.503 Y105.416 E.01314
G1 X145.503 Y72.076 E1.04535
G1 X145.084 Y72.076 E.01314
G1 X145.084 Y105.416 E1.04535
G1 X144.665 Y105.416 E.01314
G1 X144.665 Y72.076 E1.04535
G1 X144.246 Y72.076 E.01314
G1 X144.246 Y105.416 E1.04535
G1 X143.827 Y105.416 E.01314
G1 X143.827 Y72.076 E1.04535
G1 X143.408 Y72.076 E.01314
G1 X143.408 Y105.416 E1.04535
G1 X142.989 Y105.416 E.01314
G1 X142.989 Y72.076 E1.04535
G1 X142.57 Y72.076 E.01314
G1 X142.57 Y105.416 E1.04535
G1 X142.151 Y105.416 E.01314
G1 X142.151 Y72.076 E1.04535
G1 X141.732 Y72.076 E.01314
G1 X141.732 Y105.416 E1.04535
G1 X141.313 Y105.416 E.01314
G1 X141.313 Y72.076 E1.04535
G1 X140.894 Y72.076 E.01314
G1 X140.894 Y105.416 E1.04535
G1 X140.475 Y105.416 E.01314
G1 X140.475 Y72.076 E1.04535
G1 X140.056 Y72.076 E.01314
G1 X140.056 Y105.416 E1.04535
G1 X139.637 Y105.416 E.01314
M73 D103
G1 X139.637 Y72.076 E1.04535
G1 X139.218 Y72.076 E.01314
G1 X139.218 Y105.416 E1.04535
G1 X138.799 Y105.416 E.01314
M73 P2 R127
G1 X138.799 Y72.076 E1.04535
G1 X138.38 Y72.076 E.01314
M73 Q2 S128
G1 X138.38 Y105.416 E1.04535
G1 X137.961 Y105.416 E.01314
G1 X137.961 Y72.076 E1.04535
G1 X137.542 Y72.076 E.01314
M73 C102
G1 X137.542 Y105.416 E1.04535
G1 X137.123 Y105.416 E.01314
G1 X137.123 Y72.076 E1.04535
G1 X136.704 Y72.076 E.01314
G1 X136.704 Y105.416 E1.04535
G1 X136.285 Y105.416 E.01314
M73 Q2 S127
G1 X136.285 Y72.076 E1.04535
G1 X135.866 Y72.076 E.01314
G1 X135.866 Y105.416 E1.04535
G1 X135.447 Y105.416 E.01314
M73 P2 R126
G1 X135.447 Y72.076 E1.04535
G1 X135.028 Y72.076 E.01314
G1 X135.028 Y105.416 E1.04535
G1 X134.609 Y105.416 E.01314
G1 X134.609 Y72.076 E1.04535
G1 X134.19 Y72.076 E.01314
G1 X134.19 Y105.416 E1.04535
G1 X133.771 Y105.416 E.01314
G1 X133.771 Y72.076 E1.04535
G1 X133.352 Y72.076 E.01314
G1 X133.352 Y105.416 E1.04535
G1 X132.933 Y105.416 E.01314
G1 X132.933 Y72.076 E1.04535
G1 X132.514 Y72.076 E.01314
G1 X132.514 Y105.416 E1.04535
G1 X132.095 Y105.416 E.01314
G1 X132.095 Y72.076 E1.04535
G1 X131.677 Y72.076 E.01311
G1 X131.677 Y105.416 E1.04535
G1 X131.258 Y105.416 E.01314
G1 X131.258 Y72.076 E1.04535
G1 X130.839 Y72.076 E.01314
G1 X130.839 Y105.416 E1.04535
G1 X130.42 Y105.416 E.01314
G1 X130.42 Y72.076 E1.04535
G1 X130.001 Y72.076 E.01314
G1 X130.001 Y105.416 E1.04535
G1 X129.582 Y105.416 E.01314
G1 X129.582 Y72.076 E1.04535
G1 X129.163 Y72.076 E.01314
G1 X129.163 Y105.416 E1.04535
G1 X128.744 Y105.416 E.01314
G1 X128.744 Y72.076 E1.04535
G1 X128.325 Y72.076 E.01314
G1 X128.325 Y105.416 E1.04535
G1 X127.906 Y105.416 E.01314
G1 X127.906 Y72.076 E1.04535
G1 X127.487 Y72.076 E.01314
G1 X127.487 Y105.416 E1.04535
G1 X127.068 Y105.416 E.01314
G1 X127.068 Y72.076 E1.04535
G1 X126.649 Y72.076 E.01314
G1 X126.649 Y105.416 E1.04535
G1 X126.23 Y105.416 E.01314
G1 X126.23 Y72.076 E1.04535
G1 X125.811 Y72.076 E.01314
G1 X125.811 Y105.416 E1.04535
G1 X125.392 Y105.416 E.01314
G1 X125.392 Y72.076 E1.04535
G1 X124.973 Y72.076 E.01314
M73 D102
G1 X124.973 Y105.416 E1.04535
G1 X124.554 Y105.416 E.01314
G1 X124.554 Y72.076 E1.04535
G1 X124.135 Y72.076 E.01314
G1 X124.135 Y105.416 E1.04535
G1 X123.716 Y105.416 E.01314
G1 X123.716 Y72.076 E1.04535
G1 X123.297 Y72.076 E.01314
G1 X123.297 Y105.416 E1.04535
G1 X122.878 Y105.416 E.01314
M73 C101
G1 X122.878 Y72.076 E1.04535
G1 X122.459 Y72.076 E.01314
G1 X122.459 Y105.416 E1.04535
G1 X122.04 Y105.416 E.01314
G1 X122.04 Y72.076 E1.04535
G1 X121.621 Y72.076 E.01314
M73 Q2 S126
G1 X121.621 Y105.416 E1.04535
G1 X121.202 Y105.416 E.01314
G1 X121.202 Y72.076 E1.04535
G1 X120.783 Y72.076 E.01314
M73 P2 R125
G1 X120.783 Y105.416 E1.04535
G1 X120.364 Y105.416 E.01314
G1 X120.364 Y72.076 E1.04535
G1 X119.945 Y72.076 E.01314
G1 X119.945 Y105.416 E1.04535
G1 X119.526 Y105.416 E.01314
M73 P3 R125
G1 X119.526 Y72.076 E1.04535
G1 X119.107 Y72.076 E.01314
M73 Q3 S126
G1 X119.107 Y105.416 E1.04535
G1 X118.688 Y105.416 E.01314
G1 X118.688 Y72.076 E1.04535
G1 X118.269 Y72.076 E.01314
G1 X118.269 Y105.416 E1.04535
G1 X117.85 Y105.416 E.01314
G1 X117.85 Y72.076 E1.04535
G1 X117.431 Y72.076 E.01314
G1 X117.431 Y105.416 E1.04535
G1 X117.012 Y105.416 E.01314
G1 X117.012 Y72.076 E1.04535
G1 X116.593 Y72.076 E.01314
G1 X116.593 Y105.416 E1.04535
G1 X116.174 Y105.416 E.01314
G1 X116.174 Y72.076 E1.04535
G1 X115.755 Y72.076 E.01314
G1 X115.755 Y105.416 E1.04535
G1 X115.336 Y105.416 E.01314
G1 X115.336 Y72.076 E1.04535
G1 X114.917 Y72.076 E.01314
G1 X114.917 Y105.416 E1.04535
G1 X114.498 Y105.416 E.01314
G1 X114.498 Y72.076 E1.04535
G1 X114.079 Y72.076 E.01314
G1 X114.079 Y105.416 E1.04535
G1 X113.661 Y105.416 E.01311
G1 X113.661 Y72.076 E1.04535
G1 X113.242 Y72.076 E.01314
G1 X113.242 Y105.416 E1.04535
G1 X112.823 Y105.416 E.01314
G1 X112.823 Y72.076 E1.04535
G1 X112.404 Y72.076 E.01314
G1 X112.404 Y105.416 E1.04535
G1 X111.985 Y105.416 E.01314
G1 X111.985 Y72.076 E1.04535
G1 X111.566 Y72.076 E.01314
G1 X111.566 Y105.416 E1.04535
G1 X111.147 Y105.416 E.01314
G1 X111.147 Y72.076 E1.04535
G1 X110.728 Y72.076 E.01314
G1 X110.728 Y105.416 E1.04535
G1 X110.309 Y105.416 E.01314
M73 D101
G1 X110.309 Y72.076 E1.04535
G1 X109.89 Y72.076 E.01314
G1 X109.89 Y105.416 E1.04535
G1 X109.471 Y105.416 E.01314
G1 X109.471 Y72.076 E1.04535
G1 X109.052 Y72.076 E.01314
G1 X109.052 Y105.416 E1.04535
G1 X108.633 Y105.416 E.01314
G1 X108.633 Y72.076 E1.04535
G1 X108.214 Y72.076 E.01314
M73 C100
G1 X108.214 Y105.416 E1.04535
G1 X107.795 Y105.416 E.01314
G1 X107.795 Y72.076 E1.04535
G1 X107.376 Y72.076 E.01314
G1 X107.376 Y105.416 E1.04535
G1 X106.957 Y105.416 E.01314
M73 Q3 S125
G1 X106.957 Y72.076 E1.04535
G1 X106.538 Y72.076 E.01314
G1 X106.538 Y105.416 E1.04535
G1 X106.119 Y105.416 E.01314
M73 P3 R124
G1 X106.119 Y72.076 E1.04535
G1 X105.7 Y72.076 E.01314
G1 X105.7 Y105.416 E1.04535
G1 X105.281 Y105.416 E.01314
G1 X105.281 Y72.076 E1.04535
G1 X104.862 Y72.076 E.01314
G1 X104.862 Y105.416 E1.04535
G1 X104.443 Y105.416 E.01314
G1 X104.443 Y72.076 E1.04535
G1 X104.024 Y72.076 E.01314
G1 X104.024 Y105.416 E1.04535
G1 X103.605 Y105.416 E.01314
G1 X103.605 Y72.076 E1.04535
G1 X103.186 Y72.076 E.01314
G1 X103.186 Y105.416 E1.04535
G1 X102.767 Y105.416 E.01314
G1 X102.767 Y72.076 E1.04535
G1 X102.348 Y72.076 E.01314
G1 X102.348 Y105.416 E1.04535
G1 X101.929 Y105.416 E.01314
G1 X101.929 Y72.076 E1.04535
G1 X101.51 Y72.076 E.01314
G1 X101.51 Y105.416 E1.04535
G1 X101.091 Y105.416 E.01314
G1 X101.091 Y72.076 E1.04535
G1 X100.672 Y72.076 E.01314
G1 X100.672 Y105.416 E1.04535
G1 X100.253 Y105.416 E.01314
M73 P4 R124
G1 X100.253 Y72.076 E1.04535
G1 X99.834 Y72.076 E.01314
M73 Q4 S125
G1 X99.834 Y105.416 E1.04535
G1 X99.415 Y105.416 E.01314
G1 X99.415 Y72.076 E1.04535
G1 X98.996 Y72.076 E.01314
G1 X98.996 Y105.416 E1.04535
G1 X98.577 Y105.416 E.01314
G1 X98.577 Y72.076 E1.04535
G1 X98.158 Y72.076 E.01314
G1 X98.158 Y105.416 E1.04535
G1 X97.739 Y105.416 E.01314
G1 X97.739 Y72.076 E1.04535
G1 X97.32 Y72.076 E.01314
G1 X97.32 Y105.416 E1.04535
G1 X96.901 Y105.416 E.01314
G1 X96.901 Y72.076 E1.04535
G1 X96.482 Y72.076 E.01314
G1 X96.482 Y105.416 E1.04535
G1 X96.063 Y105.416 E.01314
G1 X96.063 Y72.076 E1.04535
G1 X95.645 Y72.076 E.01311
M73 D100
G1 X95.644 Y105.416 E1.04535
G1 X95.226 Y105.416 E.01311
G1 X95.226 Y72.076 E1.04535
G1 X94.807 Y72.076 E.01314
G1 X94.807 Y105.416 E1.04535
G1 X94.388 Y105.416 E.01314
G1 X94.388 Y72.076 E1.04535
G1 X93.969 Y72.076 E.01314
G1 X93.969 Y105.416 E1.04535
G1 X93.55 Y105.416 E.01314
M73 C99
G1 X93.55 Y72.076 E1.04535
G1 X93.131 Y72.076 E.01314
G1 X93.131 Y105.416 E1.04535
G1 X92.712 Y105.416 E.01314
G1 X92.712 Y72.076 E1.04535
G1 X92.293 Y72.076 E.01314
M73 Q4 S124
G1 X92.293 Y105.416 E1.04535
G1 X91.874 Y105.416 E.01314
G1 X91.874 Y72.076 E1.04535
G1 X91.455 Y72.076 E.01314
M73 P4 R123
G1 X91.455 Y105.416 E1.04535
G1 X91.036 Y105.416 E.01314
G1 X91.036 Y72.076 E1.04535
G1 X90.617 Y72.076 E.01314
G1 X90.617 Y105.416 E1.04535
G1 X90.198 Y105.416 E.01314
G1 X90.198 Y72.076 E1.04535
G1 X89.779 Y72.076 E.01314
G1 X89.779 Y105.416 E1.04535
